;FLAVOR:RepRap
;TIME:696
;Filament used: 0.78058m
;Layer height: 0.2
;Generated with Cura_SteamEngine 2.5.0-twosilly
M190 S50
M104 S200
M109 S200
G28 ;Home
G1 Z15.0 F6000 ;Move the platform down 15mm
;Prime the extruder
G92 E0
G1 F200 E10
G92 E0
;LAYER_COUNT:7
;LAYER:0
M107
G0 F3000 X92.497 Y93.347 Z0.3
;TYPE:WALL-INNER
G1 F1200 X127.503 Y93.347 E1.74209
G1 X127.503 Y126.653 E3.39958
G1 X92.497 Y126.653 E5.14167
G1 X92.497 Y93.347 E6.79916
G0 F3000 X92.099 Y92.949
;TYPE:WALL-OUTER
G1 F1200 X127.901 Y92.949 E8.58086
G1 X127.901 Y127.051 E10.27796
G1 X92.099 Y127.051 E12.05967
G1 X92.099 Y92.949 E13.75677
G0 F3000 X92.299 Y92.949
G0 X92.567 Y93.417
G0 X92.696 Y126.454
G0 X93.18 Y126.472
;TYPE:SKIN
G1 F1200 X92.676 Y125.968 E13.79224
G0 F3000 X92.676 Y125.404
G1 F1200 X93.744 Y126.472 E13.86741
G1 X93.814 Y126.542
G0 F3000 X94.308 Y126.472
G1 F1200 X92.676 Y124.84 E13.98226
G1 X92.606 Y124.77
G0 F3000 X92.676 Y124.276
G1 F1200 X94.873 Y126.472 E14.13685
G1 X94.943 Y126.541
G0 F3000 X95.437 Y126.472
G1 F1200 X92.676 Y123.711 E14.33117
G1 X92.606 Y123.641
G0 F3000 X92.676 Y123.147
G1 F1200 X96.001 Y126.472 E14.56518
G1 X96.071 Y126.542
G0 F3000 X96.566 Y126.472
G1 F1200 X92.676 Y122.583 E14.83892
G1 X92.606 Y122.513
G0 F3000 X92.676 Y122.019
G1 F1200 X97.13 Y126.472 E15.15235
G1 X97.2 Y126.541
G0 F3000 X97.694 Y126.472
G1 F1200 X92.676 Y121.454 E15.50551
G1 X92.606 Y121.384
G0 F3000 X92.676 Y120.89
G1 F1200 X98.258 Y126.472 E15.89837
G1 X98.328 Y126.542
G0 F3000 X98.823 Y126.472
G1 F1200 X92.676 Y120.326 E16.33095
G1 X92.606 Y120.256
G0 F3000 X92.676 Y119.761
G1 F1200 X99.387 Y126.472 E16.80327
G1 X99.457 Y126.542
G0 F3000 X99.951 Y126.472
G1 F1200 X92.676 Y119.197 E17.31527
G1 X92.606 Y119.127
G0 F3000 X92.676 Y118.633
G1 F1200 X100.515 Y126.472 E17.86698
G1 X100.585 Y126.542
G0 F3000 X101.08 Y126.472
G1 F1200 X92.676 Y118.069 E18.45841
G1 X92.606 Y117.999
G0 F3000 X92.676 Y117.504
G1 F1200 X101.644 Y126.472 E19.08956
G1 X101.714 Y126.542
G0 F3000 X102.208 Y126.472
G1 F1200 X92.676 Y116.94 E19.76042
G1 X92.606 Y116.87
G0 F3000 X92.676 Y116.376
G1 F1200 X102.773 Y126.472 E20.471
G1 X102.843 Y126.542
G0 F3000 X103.337 Y126.472
G1 F1200 X92.676 Y115.812 E21.22127
G1 X92.606 Y115.742
G0 F3000 X92.676 Y115.247
G1 F1200 X103.901 Y126.472 E22.01128
G1 X103.971 Y126.542
G0 F3000 X104.465 Y126.472
G1 F1200 X92.676 Y114.683 E22.84098
G1 X92.606 Y114.613
G0 F3000 X92.676 Y114.119
G1 F1200 X105.03 Y126.472 E23.7104
G1 X105.1 Y126.542
G0 F3000 X105.594 Y126.472
G1 F1200 X92.676 Y113.554 E24.61956
G1 X92.606 Y113.484
G0 F3000 X92.676 Y112.99
G1 F1200 X106.158 Y126.472 E25.56841
G1 X106.228 Y126.542
G0 F3000 X106.722 Y126.472
G1 F1200 X92.676 Y112.426 E26.55695
G1 X92.606 Y112.356
G0 F3000 X92.676 Y111.862
G1 F1200 X107.287 Y126.472 E27.58523
G1 X107.357 Y126.542
G0 F3000 X107.851 Y126.472
G1 F1200 X92.676 Y111.297 E28.65323
G1 X92.606 Y111.227
G0 F3000 X92.676 Y110.733
G1 F1200 X108.415 Y126.472 E29.76092
G1 X108.485 Y126.542
G0 F3000 X108.98 Y126.472
G1 F1200 X92.676 Y110.169 E30.90835
G1 X92.606 Y110.099
G0 F3000 X92.676 Y109.605
G1 F1200 X109.544 Y126.472 E32.09546
G1 X109.614 Y126.542
G0 F3000 X110.108 Y126.472
G1 F1200 X92.676 Y109.04 E33.32231
G1 X92.606 Y108.97
G0 F3000 X92.676 Y108.476
G1 F1200 X110.672 Y126.472 E34.58885
G1 X110.742 Y126.542
G0 F3000 X111.237 Y126.472
G1 F1200 X92.676 Y107.912 E35.89512
G1 X92.606 Y107.842
G0 F3000 X92.676 Y107.348
G1 F1200 X111.801 Y126.472 E37.24109
G1 X111.871 Y126.542
G0 F3000 X112.365 Y126.472
G1 F1200 X92.676 Y106.783 E38.62678
G1 X92.606 Y106.713
G0 F3000 X92.676 Y106.219
G1 F1200 X112.929 Y126.472 E40.05216
G1 X112.999 Y126.542
G0 F3000 X113.494 Y126.472
G1 F1200 X92.676 Y105.655 E41.51728
G1 X92.606 Y105.585
G0 F3000 X92.676 Y105.09
G1 F1200 X114.058 Y126.472 E43.02212
G1 X114.128 Y126.542
G0 F3000 X114.622 Y126.472
G1 F1200 X92.676 Y104.526 E44.56666
G1 X92.606 Y104.456
G0 F3000 X92.676 Y103.962
G1 F1200 X115.186 Y126.472 E46.15089
G1 X115.256 Y126.542
G0 F3000 X115.751 Y126.472
G1 F1200 X92.676 Y103.398 E47.77485
G1 X92.606 Y103.328
G0 F3000 X92.676 Y102.833
G1 F1200 X116.315 Y126.472 E49.43854
G1 X116.385 Y126.542
G0 F3000 X116.879 Y126.472
G1 F1200 X92.676 Y102.269 E51.14193
G1 X92.606 Y102.199
G0 F3000 X92.676 Y101.705
G1 F1200 X117.444 Y126.472 E52.88504
G1 X117.514 Y126.542
G0 F3000 X118.008 Y126.472
G1 F1200 X92.676 Y101.141 E54.66784
G1 X92.606 Y101.071
G0 F3000 X92.676 Y100.576
G1 F1200 X118.572 Y126.472 E56.49038
G1 X118.642 Y126.542
G0 F3000 X119.136 Y126.472
G1 F1200 X92.676 Y100.012 E58.35261
G1 X92.606 Y99.942
G0 F3000 X92.676 Y99.448
G1 F1200 X119.701 Y126.472 E60.25457
G1 X119.771 Y126.542
G0 F3000 X120.265 Y126.472
G1 F1200 X92.676 Y98.883 E62.19625
G1 X92.606 Y98.813
G0 F3000 X92.676 Y98.319
G1 F1200 X120.829 Y126.472 E64.17763
G1 X120.899 Y126.542
G0 F3000 X121.393 Y126.472
G1 F1200 X92.676 Y97.755 E66.19871
G1 X92.606 Y97.685
G0 F3000 X92.676 Y97.191
G1 F1200 X121.958 Y126.472 E68.25951
G1 X122.028 Y126.542
G0 F3000 X122.522 Y126.472
G1 F1200 X92.676 Y96.626 E70.36004
G1 X92.606 Y96.556
G0 F3000 X92.676 Y96.062
G1 F1200 X123.086 Y126.472 E72.50027
G1 X123.156 Y126.542
G0 F3000 X123.651 Y126.472
G1 F1200 X92.676 Y95.498 E74.68022
G1 X92.606 Y95.428
G0 F3000 X92.676 Y94.934
G1 F1200 X124.215 Y126.472 E76.89987
G1 X124.285 Y126.542
G0 F3000 X124.779 Y126.472
G1 F1200 X92.676 Y94.369 E79.15925
G1 X92.606 Y94.299
G0 F3000 X92.676 Y93.805
G1 F1200 X125.343 Y126.472 E81.45832
G1 X125.413 Y126.542
G0 F3000 X125.908 Y126.472
G1 F1200 X92.962 Y93.526 E83.77703
G1 X92.892 Y93.456
G0 F3000 X93.526 Y93.526
G1 F1200 X126.472 Y126.472 E86.09573
G1 X126.542 Y126.542
G0 F3000 X127.036 Y126.472
G1 F1200 X94.091 Y93.526 E88.4144
G1 X94.021 Y93.456
G0 F3000 X94.655 Y93.526
G1 F1200 X127.322 Y126.193 E90.71348
G1 X127.392 Y126.263
G0 F3000 X127.322 Y125.629
G1 F1200 X95.219 Y93.526 E92.97285
G1 X95.149 Y93.456
G0 F3000 X95.783 Y93.526
G1 F1200 X127.322 Y125.065 E95.19254
G1 X127.392 Y125.135
G0 F3000 X127.322 Y124.5
G1 F1200 X96.348 Y93.526 E97.37246
G1 X96.278 Y93.456
G0 F3000 X96.912 Y93.526
G1 F1200 X127.322 Y123.936 E99.51268
G1 X127.392 Y124.006
G0 F3000 X127.322 Y123.372
G1 F1200 X97.476 Y93.526 E101.61321
G1 X97.406 Y93.456
G0 F3000 X98.041 Y93.526
G1 F1200 X127.322 Y122.808 E103.67402
G1 X127.392 Y122.878
G0 F3000 X127.322 Y122.243
G1 F1200 X98.605 Y93.526 E105.69509
G1 X98.535 Y93.456
G0 F3000 X99.169 Y93.526
G1 F1200 X127.322 Y121.679 E107.67647
G1 X127.392 Y121.749
G0 F3000 X127.322 Y121.115
G1 F1200 X99.733 Y93.526 E109.61816
G1 X99.663 Y93.456
G0 F3000 X100.298 Y93.526
G1 F1200 X127.322 Y120.551 E111.52012
G1 X127.392 Y120.621
G0 F3000 X127.322 Y119.986
G1 F1200 X100.862 Y93.526 E113.38234
G1 X100.792 Y93.456
G0 F3000 X101.426 Y93.526
G1 F1200 X127.322 Y119.422 E115.20488
G1 X127.392 Y119.492
G0 F3000 X127.322 Y118.858
G1 F1200 X101.99 Y93.526 E116.98772
G1 X101.92 Y93.456
G0 F3000 X102.555 Y93.526
G1 F1200 X127.322 Y118.294 E118.73083
G1 X127.392 Y118.364
G0 F3000 X127.322 Y117.729
G1 F1200 X103.119 Y93.526 E120.43422
G1 X103.049 Y93.456
G0 F3000 X103.683 Y93.526
G1 F1200 X127.322 Y117.165 E122.09791
G1 X127.392 Y117.235
G0 F3000 X127.322 Y116.601
G1 F1200 X104.248 Y93.526 E123.72187
G1 X104.178 Y93.456
G0 F3000 X104.812 Y93.526
G1 F1200 X127.322 Y116.036 E125.3061
G1 X127.392 Y116.106
G0 F3000 X127.322 Y115.472
G1 F1200 X105.376 Y93.526 E126.85064
G1 X105.306 Y93.456
G0 F3000 X105.94 Y93.526
G1 F1200 X127.322 Y114.908 E128.35548
G1 X127.392 Y114.978
G0 F3000 X127.322 Y114.344
G1 F1200 X106.505 Y93.526 E129.82059
G1 X106.435 Y93.456
G0 F3000 X107.069 Y93.526
G1 F1200 X127.322 Y113.779 E131.24598
G1 X127.392 Y113.849
G0 F3000 X127.322 Y113.215
G1 F1200 X107.633 Y93.526 E132.63167
G1 X107.563 Y93.456
G0 F3000 X108.197 Y93.526
G1 F1200 X127.322 Y112.651 E133.97767
G1 X127.392 Y112.721
G0 F3000 X127.322 Y112.087
G1 F1200 X108.762 Y93.526 E135.28394
G1 X108.692 Y93.456
G0 F3000 X109.326 Y93.526
G1 F1200 X127.322 Y111.522 E136.55048
G1 X127.392 Y111.592
G0 F3000 X127.322 Y110.958
G1 F1200 X109.89 Y93.526 E137.77733
G1 X109.82 Y93.456
G0 F3000 X110.455 Y93.526
G1 F1200 X127.322 Y110.394 E138.96445
G1 X127.392 Y110.464
G0 F3000 X127.322 Y109.829
G1 F1200 X111.019 Y93.526 E140.11184
G1 X110.949 Y93.456
G0 F3000 X111.583 Y93.526
G1 F1200 X127.322 Y109.265 E141.21953
G1 X127.392 Y109.335
G0 F3000 X127.322 Y108.701
G1 F1200 X112.147 Y93.526 E142.28753
G1 X112.077 Y93.456
G0 F3000 X112.712 Y93.526
G1 F1200 X127.322 Y108.137 E143.31581
G1 X127.392 Y108.207
G0 F3000 X127.322 Y107.572
G1 F1200 X113.276 Y93.526 E144.30435
G1 X113.206 Y93.456
G0 F3000 X113.84 Y93.526
G1 F1200 X127.322 Y107.008 E145.2532
G1 X127.392 Y107.078
G0 F3000 X127.322 Y106.444
G1 F1200 X114.404 Y93.526 E146.16236
G1 X114.334 Y93.456
G0 F3000 X114.969 Y93.526
G1 F1200 X127.322 Y105.88 E147.03178
G1 X127.392 Y105.95
G0 F3000 X127.322 Y105.315
G1 F1200 X115.533 Y93.526 E147.86148
G1 X115.463 Y93.456
G0 F3000 X116.097 Y93.526
G1 F1200 X127.322 Y104.751 E148.65148
G1 X127.392 Y104.821
G0 F3000 X127.322 Y104.187
G1 F1200 X116.662 Y93.526 E149.40176
G1 X116.592 Y93.456
G0 F3000 X117.226 Y93.526
G1 F1200 X127.322 Y103.622 E150.11231
G1 X127.392 Y103.692
G0 F3000 X127.322 Y103.058
G1 F1200 X117.79 Y93.526 E150.78316
G1 X117.72 Y93.456
G0 F3000 X118.354 Y93.526
G1 F1200 X127.322 Y102.494 E151.41432
G1 X127.392 Y102.564
G0 F3000 X127.322 Y101.93
G1 F1200 X118.919 Y93.526 E152.00575
G1 X118.849 Y93.456
G0 F3000 X119.483 Y93.526
G1 F1200 X127.322 Y101.365 E152.55745
G1 X127.392 Y101.435
G0 F3000 X127.322 Y100.801
G1 F1200 X120.047 Y93.526 E153.06946
G1 X119.977 Y93.456
G0 F3000 X120.611 Y93.526
G1 F1200 X127.322 Y100.237 E153.54177
G1 X127.392 Y100.307
G0 F3000 X127.322 Y99.673
G1 F1200 X121.176 Y93.526 E153.97436
G1 X121.106 Y93.456
G0 F3000 X121.74 Y93.526
G1 F1200 X127.322 Y99.108 E154.36721
G1 X127.392 Y99.178
G0 F3000 X127.322 Y98.544
G1 F1200 X122.304 Y93.526 E154.72037
G1 X122.234 Y93.456
G0 F3000 X122.868 Y93.526
G1 F1200 X127.322 Y97.98 E155.03384
G1 X127.392 Y98.05
G0 F3000 X127.322 Y97.415
G1 F1200 X123.433 Y93.526 E155.30754
G1 X123.363 Y93.456
G0 F3000 X123.997 Y93.526
G1 F1200 X127.322 Y96.851 E155.54155
G1 X127.392 Y96.921
G0 F3000 X127.322 Y96.287
G1 F1200 X124.561 Y93.526 E155.73587
G1 X124.491 Y93.456
G0 F3000 X125.126 Y93.526
G1 F1200 X127.322 Y95.723 E155.89046
G1 X127.391 Y95.793
G0 F3000 X127.322 Y95.158
G1 F1200 X125.69 Y93.526 E156.00532
G1 X125.62 Y93.456
G0 F3000 X126.254 Y93.526
G1 F1200 X127.322 Y94.594 E156.08048
G1 X127.392 Y94.664
G0 F3000 X127.322 Y94.03
G1 F1200 X126.818 Y93.526 E156.11595
G0 F3000 X126.818 Y93.746
G0 X92.567 Y93.417
G0 X92.497 Y93.347
;TIME_ELAPSED:163.771013
;LAYER:1
M140 S50
G1 F3600 E150.11595
M106 S255
G0 F4500 X92.497 Y93.347 Z0.5
;TYPE:WALL-INNER
G1 F3600 E156.11595
G1 F1500 X127.503 Y93.347 E157.27735
G1 X127.503 Y126.653 E158.38234
G1 X92.497 Y126.653 E159.54373
G1 X92.497 Y93.347 E160.64873
G0 F4500 X92.099 Y92.949
;TYPE:WALL-OUTER
G1 F1500 X127.901 Y92.949 E161.83653
G1 X127.901 Y127.051 E162.96793
G1 X92.099 Y127.051 E164.15573
G1 X92.099 Y92.949 E165.28713
G0 F4500 X92.299 Y92.949
G0 X92.696 Y93.546
G0 X92.676 Y94.096
;TYPE:SKIN
G1 F1800 X93.246 Y93.526 E165.31388
G1 X93.316 Y93.456
G0 F4500 X93.811 Y93.526
G1 F1800 X92.676 Y94.661 E165.36713
G1 X92.606 Y94.731
G0 F4500 X92.676 Y95.225
G1 F1800 X94.375 Y93.526 E165.44685
G1 X94.445 Y93.456
G0 F4500 X94.939 Y93.526
G1 F1800 X92.676 Y95.789 E165.55303
G1 X92.606 Y95.859
G0 F4500 X92.676 Y96.353
G1 F1800 X95.503 Y93.526 E165.68567
G1 X95.573 Y93.456
G0 F4500 X96.068 Y93.526
G1 F1800 X92.676 Y96.918 E165.84482
G1 X92.606 Y96.988
G0 F4500 X92.676 Y97.482
G1 F1800 X96.632 Y93.526 E166.03043
G1 X96.702 Y93.456
G0 F4500 X97.196 Y93.526
G1 F1800 X92.676 Y98.046 E166.24251
G1 X92.606 Y98.116
G0 F4500 X92.676 Y98.61
G1 F1800 X97.761 Y93.526 E166.48107
G1 X97.831 Y93.456
G0 F4500 X98.325 Y93.526
G1 F1800 X92.676 Y99.175 E166.74611
G1 X92.606 Y99.245
G0 F4500 X92.676 Y99.739
G1 F1800 X98.889 Y93.526 E167.03762
G1 X98.959 Y93.456
G0 F4500 X99.453 Y93.526
G1 F1800 X92.676 Y100.303 E167.3556
G1 X92.606 Y100.373
G0 F4500 X92.676 Y100.868
G1 F1800 X100.018 Y93.526 E167.70008
G1 X100.088 Y93.456
G0 F4500 X100.582 Y93.526
G1 F1800 X92.676 Y101.432 E168.07102
G1 X92.606 Y101.502
G0 F4500 X92.676 Y101.996
G1 F1800 X101.146 Y93.526 E168.46843
G1 X101.216 Y93.456
G0 F4500 X101.71 Y93.526
G1 F1800 X92.676 Y102.56 E168.8923
G1 X92.606 Y102.63
G0 F4500 X92.676 Y103.125
G1 F1800 X102.275 Y93.526 E169.34268
G1 X102.345 Y93.456
G0 F4500 X102.839 Y93.526
G1 F1800 X92.676 Y103.689 E169.81952
G1 X92.606 Y103.759
G0 F4500 X92.676 Y104.253
G1 F1800 X103.403 Y93.526 E170.32282
G1 X103.473 Y93.456
G0 F4500 X103.968 Y93.526
G1 F1800 X92.676 Y104.817 E170.85261
G1 X92.606 Y104.887
G0 F4500 X92.676 Y105.382
G1 F1800 X104.532 Y93.526 E171.40889
G1 X104.602 Y93.456
G0 F4500 X105.096 Y93.526
G1 F1800 X92.676 Y105.946 E171.99163
G1 X92.606 Y106.016
G0 F4500 X92.676 Y106.51
G1 F1800 X105.66 Y93.526 E172.60083
G1 X105.73 Y93.456
G0 F4500 X106.225 Y93.526
G1 F1800 X92.676 Y107.075 E173.23654
G1 X92.606 Y107.145
G0 F4500 X92.676 Y107.639
G1 F1800 X106.789 Y93.526 E173.89871
G1 X106.859 Y93.456
G0 F4500 X107.353 Y93.526
G1 F1800 X92.676 Y108.203 E174.58734
G1 X92.606 Y108.273
G0 F4500 X92.676 Y108.767
G1 F1800 X107.917 Y93.526 E175.30244
G1 X107.987 Y93.456
G0 F4500 X108.482 Y93.526
G1 F1800 X92.676 Y109.332 E176.04405
G1 X92.606 Y109.402
G0 F4500 X92.676 Y109.896
G1 F1800 X109.046 Y93.526 E176.81212
G1 X109.116 Y93.456
G0 F4500 X109.61 Y93.526
G1 F1800 X92.676 Y110.46 E177.60665
G1 X92.606 Y110.53
G0 F4500 X92.676 Y111.024
G1 F1800 X110.175 Y93.526 E178.42767
G1 X110.245 Y93.456
G0 F4500 X110.739 Y93.526
G1 F1800 X92.676 Y111.589 E179.27517
G1 X92.606 Y111.659
G0 F4500 X92.676 Y112.153
G1 F1800 X111.303 Y93.526 E180.14914
G1 X111.373 Y93.456
G0 F4500 X111.867 Y93.526
G1 F1800 X92.676 Y112.717 E181.04957
G1 X92.606 Y112.787
G0 F4500 X92.676 Y113.282
G1 F1800 X112.432 Y93.526 E181.97651
G1 X112.502 Y93.456
G0 F4500 X112.996 Y93.526
G1 F1800 X92.676 Y113.846 E182.92991
G1 X92.606 Y113.916
G0 F4500 X92.676 Y114.41
G1 F1800 X113.56 Y93.526 E183.90977
G1 X113.63 Y93.456
G0 F4500 X114.124 Y93.526
G1 F1800 X92.676 Y114.974 E184.9161
G1 X92.606 Y115.044
G0 F4500 X92.676 Y115.539
G1 F1800 X114.689 Y93.526 E185.94893
G1 X114.759 Y93.456
G0 F4500 X115.253 Y93.526
G1 F1800 X92.676 Y116.103 E187.00823
G1 X92.606 Y116.173
G0 F4500 X92.676 Y116.667
G1 F1800 X115.817 Y93.526 E188.09399
G1 X115.887 Y93.456
G0 F4500 X116.381 Y93.526
G1 F1800 X92.676 Y117.231 E189.20622
G1 X92.606 Y117.301
G0 F4500 X92.676 Y117.796
G1 F1800 X116.946 Y93.526 E190.34495
G1 X117.016 Y93.456
G0 F4500 X117.51 Y93.526
G1 F1800 X92.676 Y118.36 E191.51014
G1 X92.606 Y118.43
G0 F4500 X92.676 Y118.924
G1 F1800 X118.074 Y93.526 E192.7018
G1 X118.144 Y93.456
G0 F4500 X118.639 Y93.526
G1 F1800 X92.676 Y119.489 E193.91997
G1 X92.606 Y119.559
G0 F4500 X92.676 Y120.053
G1 F1800 X119.203 Y93.526 E195.1646
G1 X119.273 Y93.456
G0 F4500 X119.767 Y93.526
G1 F1800 X92.676 Y120.617 E196.43569
G1 X92.606 Y120.687
G0 F4500 X92.676 Y121.181
G1 F1800 X120.331 Y93.526 E197.73324
G1 X120.401 Y93.456
G0 F4500 X120.896 Y93.526
G1 F1800 X92.676 Y121.746 E199.05731
G1 X92.606 Y121.816
G0 F4500 X92.676 Y122.31
G1 F1800 X121.46 Y93.526 E200.40783
G1 X121.53 Y93.456
G0 F4500 X122.024 Y93.526
G1 F1800 X92.676 Y122.874 E201.78482
G1 X92.606 Y122.944
G0 F4500 X92.676 Y123.438
G1 F1800 X122.588 Y93.526 E203.18827
G1 X122.658 Y93.456
G0 F4500 X123.153 Y93.526
G1 F1800 X92.676 Y124.003 E204.61823
G1 X92.606 Y124.073
G0 F4500 X92.676 Y124.567
G1 F1800 X123.717 Y93.526 E206.07466
G1 X123.787 Y93.456
G0 F4500 X124.281 Y93.526
G1 F1800 X92.676 Y125.131 E207.55754
G1 X92.606 Y125.201
G0 F4500 X92.676 Y125.696
G1 F1800 X124.846 Y93.526 E209.06694
G1 X124.916 Y93.456
G0 F4500 X125.41 Y93.526
G1 F1800 X92.676 Y126.26 E210.6028
G1 X92.606 Y126.33
G0 F4500 X93.029 Y126.472
G1 F1800 X125.974 Y93.526 E212.14858
G1 X126.044 Y93.456
G0 F4500 X126.538 Y93.526
G1 F1800 X93.593 Y126.472 E213.69436
G1 X93.523 Y126.542
