;FLAVOR:RepRap
;TIME:5608
;Filament used: 4.55704m
;Layer height: 0.2
;Generated with Cura_SteamEngine 2.5.0-twosilly
M190 S50
M104 S200
M109 S200
G28 ;Home
G1 Z15.0 F6000 ;Move the platform down 15mm
;Prime the extruder
G92 E0
G1 F200 E10
G92 E0
;LAYER_COUNT:202
;LAYER:0
M107
G0 F3000 X88.899 Y108.699 Z0.3
;TYPE:SUPPORT
G1 F1200 X89.501 Y108.699 E0.02996
G1 X89.501 Y111.301 E0.15945
G1 X88.899 Y111.301 E0.18941
G1 X88.899 Y108.699 E0.3189
G0 F3000 X89.06 Y110.4
G1 F1200 X89.34 Y110.4 E0.33283
G1 F3600 E-5.66717
G0 F3000 X90.139 Y110.401
G0 X91.401 Y110.4
G0 X100.733 Y115.667
G0 X100.803 Y115.597
;TYPE:WALL-INNER
G1 F3600 E0.33283
G1 F1200 X115.997 Y115.597 E1.08897
G1 X115.997 Y104.403 E1.64604
G1 X100.803 Y104.403 E2.40218
G1 X100.803 Y115.597 E2.95925
G0 F3000 X100.733 Y115.667
G0 X91.473 Y127.677
G0 X91.403 Y127.747
G1 F1200 X91.398 Y92.469 E4.71488
G1 X91.398 Y92.289 E4.72384
G1 X91.409 Y92.251 E4.72581
G1 X91.589 Y92.251 E4.73477
G1 X128.41 Y92.254 E6.56718
G1 X128.594 Y92.254 E6.57634
G1 X128.602 Y92.284 E6.57788
G1 X128.602 Y92.468 E6.58704
G1 X128.598 Y127.741 E8.34242
G1 X128.59 Y127.75 E8.34302
G1 X91.403 Y127.747 E10.19364
G0 F3000 X91.005 Y128.145
;TYPE:WALL-OUTER
G1 F1200 X91 Y92.266 E11.97918
G1 X91.014 Y92.15 E11.98499
G1 X91.062 Y92.046 E11.99069
G1 X91.142 Y91.948 E11.99699
G1 X91.231 Y91.892 E12.00222
G1 X91.318 Y91.859 E12.00685
G1 X91.408 Y91.85 E12.01136
G1 X128.592 Y91.85 E13.86183
G1 X128.679 Y91.858 E13.86618
G1 X128.771 Y91.894 E13.8711
G1 X128.869 Y91.958 E13.87692
G1 X128.937 Y92.045 E13.88242
G1 X128.988 Y92.163 E13.88882
G1 X129 Y92.259 E13.89363
G1 X129 Y127.734 E15.65906
G1 X128.986 Y127.85 E15.66488
G1 X128.938 Y127.954 E15.67058
G1 X128.858 Y128.052 E15.67687
G1 X128.769 Y128.108 E15.68211
G1 X128.682 Y128.141 E15.68674
G1 X128.592 Y128.15 E15.69124
G1 X91.005 Y128.145 E17.56177
G0 F3000 X91.005 Y127.945
G0 X91.473 Y127.677
G0 X100.703 Y115.199
G0 X101.201 Y115.199
G1 F1200 X115.599 Y115.199 E18.2783
G1 X115.599 Y104.801 E18.79576
G1 X101.201 Y104.801 E19.51228
G1 X101.201 Y115.199 E20.02974
G0 F3000 X101.401 Y115.199
G0 X101.401 Y115.697
G0 X91.602 Y127.548
G0 X92.017 Y127.566
;TYPE:SKIN
G1 F1200 X91.582 Y127.131 E20.06036
G0 F3000 X91.582 Y126.567
G1 F1200 X92.581 Y127.566 E20.13067
G1 X92.651 Y127.636
G0 F3000 X93.145 Y127.566
G1 F1200 X91.582 Y126.002 E20.2407
G1 X91.513 Y125.932
G0 F3000 X91.582 Y125.438
G1 F1200 X93.71 Y127.566 E20.39047
G1 X93.78 Y127.636
G0 F3000 X94.274 Y127.566
G1 F1200 X91.582 Y124.874 E20.57993
G1 X91.512 Y124.804
G0 F3000 X91.582 Y124.31
G1 F1200 X94.838 Y127.566 E20.80908
G1 X94.908 Y127.636
G0 F3000 X95.402 Y127.566
G1 F1200 X91.582 Y123.745 E21.07797
G1 X91.513 Y123.675
G0 F3000 X91.582 Y123.181
G1 F1200 X95.967 Y127.566 E21.38658
G1 X96.037 Y127.636
G0 F3000 X96.531 Y127.566
G1 F1200 X91.582 Y122.617 E21.73488
G1 X91.512 Y122.547
G0 F3000 X91.581 Y122.052
G1 F1200 X97.095 Y127.566 E22.12295
G1 X97.165 Y127.636
G0 F3000 X97.659 Y127.566
G1 F1200 X91.581 Y121.488 E22.55072
G1 X91.511 Y121.418
G0 F3000 X91.581 Y120.923
G1 F1200 X98.224 Y127.566 E23.01825
G1 X98.294 Y127.636
G0 F3000 X98.788 Y127.566
G1 F1200 X91.581 Y120.359 E23.52547
G1 X91.511 Y120.289
G0 F3000 X91.581 Y119.795
G1 F1200 X99.353 Y127.567 E24.07245
G1 X99.423 Y127.637
G0 F3000 X99.917 Y127.567
G1 F1200 X91.581 Y119.23 E24.65917
G1 X91.511 Y119.16
G0 F3000 X91.581 Y118.666
G1 F1200 X100.481 Y127.567 E25.28558
G1 X100.551 Y127.637
G0 F3000 X101.046 Y127.567
G1 F1200 X91.581 Y118.102 E25.95171
G1 X91.511 Y118.032
G0 F3000 X91.581 Y117.538
G1 F1200 X101.61 Y127.567 E26.65754
G1 X101.68 Y127.637
G0 F3000 X102.174 Y127.567
G1 F1200 X91.58 Y116.973 E27.40314
G1 X91.51 Y116.903
G0 F3000 X91.58 Y116.408
G1 F1200 X102.739 Y127.567 E28.1885
G1 X102.809 Y127.637
G0 F3000 X103.303 Y127.567
G1 F1200 X91.58 Y115.844 E29.01355
G1 X91.51 Y115.774
G0 F3000 X91.58 Y115.28
G1 F1200 X103.867 Y127.567 E29.8783
G1 X103.937 Y127.637
G0 F3000 X104.431 Y127.567
G1 F1200 X91.58 Y114.716 E30.78274
G1 X91.51 Y114.646
G0 F3000 X91.58 Y114.151
G1 F1200 X104.996 Y127.567 E31.72694
G1 X105.066 Y127.637
G0 F3000 X105.56 Y127.567
G1 F1200 X91.58 Y113.587 E32.71084
G1 X91.51 Y113.517
G0 F3000 X91.58 Y113.023
G1 F1200 X106.124 Y127.567 E33.73444
G1 X106.194 Y127.637
G0 F3000 X106.689 Y127.567
G1 F1200 X91.58 Y112.458 E34.79779
G1 X91.51 Y112.388
G0 F3000 X91.58 Y111.893
G1 F1200 X107.253 Y127.567 E35.90088
G1 X107.323 Y127.637
G0 F3000 X107.818 Y127.567
G1 F1200 X91.58 Y111.329 E37.04369
G1 X91.51 Y111.259
G0 F3000 X91.58 Y110.765
G1 F1200 X108.382 Y127.567 E38.2262
G1 X108.452 Y127.637
G0 F3000 X108.946 Y127.567
G1 F1200 X91.58 Y110.201 E39.4484
G1 X91.51 Y110.131
G0 F3000 X91.58 Y109.636
G1 F1200 X109.511 Y127.567 E40.71037
G1 X109.581 Y127.637
G0 F3000 X110.075 Y127.567
G1 F1200 X91.58 Y109.072 E42.01203
G1 X91.51 Y109.002
G0 F3000 X91.58 Y108.508
G1 F1200 X110.639 Y127.567 E43.35338
G1 X110.709 Y127.637
G0 F3000 X111.203 Y127.567
G1 F1200 X91.58 Y107.944 E44.73443
G1 X91.51 Y107.874
G0 F3000 X91.579 Y107.379
G1 F1200 X111.768 Y127.567 E46.15528
G1 X111.838 Y127.637
G0 F3000 X112.332 Y127.567
G1 F1200 X91.579 Y106.814 E47.61585
G1 X91.509 Y106.744
G0 F3000 X91.579 Y106.25
G1 F1200 X100.622 Y115.293 E48.25229
G1 X100.692 Y115.363
G0 F3000 X100.622 Y114.729
G1 F1200 X91.579 Y105.686 E48.88873
G1 X91.509 Y105.616
G0 F3000 X91.579 Y105.122
G1 F1200 X100.622 Y114.165 E49.52516
G1 X100.692 Y114.235
G0 F3000 X100.622 Y113.6
G1 F1200 X91.579 Y104.557 E50.1616
G1 X91.509 Y104.487
G0 F3000 X91.579 Y103.993
G1 F1200 X100.622 Y113.036 E50.79804
G1 X100.692 Y113.106
G0 F3000 X100.622 Y112.472
G1 F1200 X91.579 Y103.429 E51.43448
G1 X91.509 Y103.359
G0 F3000 X91.579 Y102.864
G1 F1200 X100.622 Y111.908 E52.07095
G1 X100.692 Y111.978
G0 F3000 X100.622 Y111.343
G1 F1200 X91.578 Y102.299 E52.70746
G1 X91.508 Y102.229
G0 F3000 X91.578 Y101.735
G1 F1200 X100.622 Y110.779 E53.34396
G1 X100.692 Y110.849
G0 F3000 X100.622 Y110.215
G1 F1200 X91.578 Y101.171 E53.98047
G1 X91.508 Y101.101
G0 F3000 X91.578 Y100.607
G1 F1200 X100.622 Y109.651 E54.61698
G1 X100.692 Y109.721
G0 F3000 X100.622 Y109.086
G1 F1200 X91.578 Y100.042 E55.25349
G1 X91.508 Y99.972
G0 F3000 X91.578 Y99.478
G1 F1200 X100.622 Y108.522 E55.88999
G1 X100.692 Y108.592
G0 F3000 X100.622 Y107.958
G1 F1200 X91.578 Y98.914 E56.5265
G1 X91.508 Y98.844
G0 F3000 X91.578 Y98.35
G1 F1200 X100.622 Y107.393 E57.16298
G1 X100.692 Y107.463
G0 F3000 X100.622 Y106.829
G1 F1200 X91.578 Y97.785 E57.79948
G1 X91.508 Y97.715
G0 F3000 X91.578 Y97.22
G1 F1200 X100.622 Y106.265 E58.43603
G1 X100.692 Y106.335
G0 F3000 X100.622 Y105.701
G1 F1200 X91.578 Y96.656 E59.07257
G1 X91.508 Y96.586
G0 F3000 X91.578 Y96.092
G1 F1200 X100.622 Y105.136 E59.70908
G1 X100.692 Y105.206
G0 F3000 X100.622 Y104.572
G1 F1200 X91.578 Y95.528 E60.34558
G1 X91.508 Y95.458
G0 F3000 X91.578 Y94.963
G1 F1200 X100.836 Y104.221 E60.99715
G1 X100.906 Y104.291
G0 F3000 X101.4 Y104.221
G1 F1200 X91.578 Y94.399 E61.68842
G1 X91.508 Y94.329
G0 F3000 X91.578 Y93.835
G1 F1200 X101.964 Y104.221 E62.41937
G1 X102.034 Y104.291
G0 F3000 X102.529 Y104.221
G1 F1200 X91.578 Y93.27 E63.19009
G1 X91.508 Y93.2
G0 F3000 X91.578 Y92.706
G1 F1200 X103.093 Y104.221 E64.00051
G1 X103.163 Y104.291
G0 F3000 X103.657 Y104.221
G1 F1200 X91.867 Y92.431 E64.83028
G1 X91.797 Y92.361
G0 F3000 X92.431 Y92.431
G1 F1200 X104.221 Y104.221 E65.66004
G1 X104.291 Y104.291
G0 F3000 X104.786 Y104.221
G1 F1200 X92.995 Y92.431 E66.48985
G1 X92.925 Y92.361
G0 F3000 X93.56 Y92.431
G1 F1200 X105.35 Y104.221 E67.31962
G1 X105.42 Y104.291
G0 F3000 X105.914 Y104.221
G1 F1200 X94.124 Y92.431 E68.14939
G1 X94.054 Y92.361
G0 F3000 X94.688 Y92.431
G1 F1200 X106.478 Y104.221 E68.97915
G1 X106.548 Y104.291
G0 F3000 X107.043 Y104.221
G1 F1200 X95.252 Y92.431 E69.80896
G1 X95.182 Y92.361
G0 F3000 X95.817 Y92.431
G1 F1200 X107.607 Y104.221 E70.63873
G1 X107.677 Y104.291
G0 F3000 X108.171 Y104.221
G1 F1200 X96.381 Y92.431 E71.4685
G1 X96.311 Y92.361
G0 F3000 X96.945 Y92.431
G1 F1200 X108.736 Y104.222 E72.29833
G1 X108.806 Y104.292
G0 F3000 X109.301 Y104.222
G1 F1200 X97.51 Y92.431 E73.12817
G1 X97.44 Y92.361
G0 F3000 X98.074 Y92.431
G1 F1200 X109.865 Y104.222 E73.95801
G1 X109.935 Y104.292
G0 F3000 X110.429 Y104.222
G1 F1200 X98.638 Y92.431 E74.78785
G1 X98.568 Y92.361
G0 F3000 X99.202 Y92.431
G1 F1200 X110.993 Y104.222 E75.61769
G1 X111.063 Y104.292
G0 F3000 X111.558 Y104.222
G1 F1200 X99.767 Y92.431 E76.44753
G1 X99.697 Y92.361
G0 F3000 X100.331 Y92.431
G1 F1200 X112.122 Y104.222 E77.27737
G1 X112.192 Y104.292
G0 F3000 X112.686 Y104.222
G1 F1200 X100.896 Y92.432 E78.10714
G1 X100.826 Y92.362
G0 F3000 X101.46 Y92.432
G1 F1200 X113.25 Y104.222 E78.9369
G1 X113.32 Y104.292
G0 F3000 X113.815 Y104.222
G1 F1200 X102.024 Y92.432 E79.76671
G1 X101.954 Y92.362
G0 F3000 X102.589 Y92.432
G1 F1200 X114.379 Y104.222 E80.59648
G1 X114.449 Y104.292
G0 F3000 X114.943 Y104.222
G1 F1200 X103.153 Y92.432 E81.42625
G1 X103.083 Y92.362
G0 F3000 X103.717 Y92.432
G1 F1200 X115.508 Y104.222 E82.25605
G1 X115.578 Y104.292
G0 F3000 X116.072 Y104.222
G1 F1200 X104.281 Y92.432 E83.08585
G1 X104.211 Y92.362
G0 F3000 X104.846 Y92.432
G1 F1200 X128.418 Y116.004 E84.74483
G1 X128.488 Y116.074
G0 F3000 X128.418 Y116.568
G1 F1200 X116.176 Y104.326 E85.60641
G1 X116.106 Y104.256
G0 F3000 X116.176 Y104.89
G1 F1200 X128.418 Y117.132 E86.46799
G1 X128.488 Y117.202
G0 F3000 X128.418 Y117.697
G1 F1200 X116.176 Y105.455 E87.32957
G1 X116.106 Y105.385
G0 F3000 X116.176 Y106.019
G1 F1200 X128.418 Y118.261 E88.19115
G1 X128.488 Y118.331
G0 F3000 X128.418 Y118.825
G1 F1200 X116.176 Y106.583 E89.05273
G1 X116.106 Y106.513
G0 F3000 X116.176 Y107.147
G1 F1200 X128.418 Y119.39 E89.91434
G1 X128.488 Y119.46
G0 F3000 X128.418 Y119.954
G1 F1200 X116.176 Y107.712 E90.77592
G1 X116.106 Y107.642
G0 F3000 X116.176 Y108.276
G1 F1200 X128.418 Y120.518 E91.6375
G1 X128.488 Y120.588
G0 F3000 X128.418 Y121.082
G1 F1200 X116.176 Y108.84 E92.49908
G1 X116.106 Y108.77
G0 F3000 X116.176 Y109.404
G1 F1200 X128.418 Y121.647 E93.3607
G1 X128.488 Y121.717
G0 F3000 X128.417 Y122.21
G1 F1200 X116.176 Y109.969 E94.22221
G1 X116.106 Y109.899
G0 F3000 X116.176 Y110.533
G1 F1200 X128.417 Y122.774 E95.08372
G1 X128.487 Y122.844
G0 F3000 X128.417 Y123.339
G1 F1200 X116.176 Y111.097 E95.94526
G1 X116.106 Y111.027
G0 F3000 X116.176 Y111.662
G1 F1200 X128.417 Y123.903 E96.80677
G1 X128.487 Y123.973
G0 F3000 X128.417 Y124.467
G1 F1200 X116.176 Y112.226 E97.66828
G1 X116.106 Y112.156
G0 F3000 X116.176 Y112.79
G1 F1200 X128.417 Y125.032 E98.52982
G1 X128.487 Y125.102
G0 F3000 X128.417 Y125.596
G1 F1200 X116.176 Y113.354 E99.39137
G1 X116.106 Y113.284
G0 F3000 X116.176 Y113.919
G1 F1200 X128.417 Y126.16 E100.25288
G1 X128.487 Y126.23
G0 F3000 X128.417 Y126.724
G1 F1200 X116.176 Y114.483 E101.11439
G1 X116.106 Y114.413
G0 F3000 X116.176 Y115.047
G1 F1200 X128.417 Y127.289 E101.97593
G1 X128.487 Y127.359
G0 F3000 X128.133 Y127.569
G1 F1200 X116.176 Y115.611 E102.81749
G1 X116.106 Y115.541
G0 F3000 X115.777 Y115.777
G1 F1200 X127.569 Y127.569 E103.6474
G1 X127.639 Y127.639
G0 F3000 X127.004 Y127.569
G1 F1200 X115.213 Y115.777 E104.47727
G1 X115.143 Y115.707
G0 F3000 X114.648 Y115.777
G1 F1200 X126.44 Y127.569 E105.30718
G1 X126.51 Y127.639
G0 F3000 X125.876 Y127.569
G1 F1200 X114.084 Y115.777 E106.13709
G1 X114.014 Y115.707
G0 F3000 X113.52 Y115.777
G1 F1200 X125.312 Y127.569 E106.967
G1 X125.382 Y127.639
G0 F3000 X124.747 Y127.569
G1 F1200 X112.956 Y115.777 E107.79687
G1 X112.886 Y115.707
G0 F3000 X112.391 Y115.777
G1 F1200 X124.183 Y127.569 E108.62678
G1 X124.253 Y127.639
G0 F3000 X123.619 Y127.569
G1 F1200 X111.827 Y115.777 E109.45669
G1 X111.757 Y115.707
G0 F3000 X111.263 Y115.777
G1 F1200 X123.054 Y127.569 E110.28657
G1 X123.124 Y127.639
G0 F3000 X122.49 Y127.569
G1 F1200 X110.698 Y115.777 E111.11648
G1 X110.628 Y115.707
G0 F3000 X110.134 Y115.777
G1 F1200 X121.926 Y127.569 E111.94639
G1 X121.996 Y127.639
G0 F3000 X121.362 Y127.569
G1 F1200 X109.57 Y115.777 E112.7763
G1 X109.5 Y115.707
G0 F3000 X109.006 Y115.777
G1 F1200 X120.797 Y127.568 E113.60613
G1 X120.867 Y127.638
G0 F3000 X120.232 Y127.568
G1 F1200 X108.441 Y115.777 E114.43597
G1 X108.371 Y115.707
G0 F3000 X107.876 Y115.776
G1 F1200 X119.668 Y127.568 E115.26588
G1 X119.738 Y127.638
G0 F3000 X119.104 Y127.568
G1 F1200 X107.312 Y115.776 E116.09579
G1 X107.242 Y115.706
G0 F3000 X106.748 Y115.776
G1 F1200 X118.54 Y127.568 E116.9257
G1 X118.61 Y127.638
G0 F3000 X117.975 Y127.568
G1 F1200 X106.184 Y115.776 E117.75558
G1 X106.114 Y115.706
G0 F3000 X105.619 Y115.776
G1 F1200 X117.411 Y127.568 E118.58548
G1 X117.481 Y127.638
G0 F3000 X116.847 Y127.568
G1 F1200 X105.055 Y115.776 E119.41539
G1 X104.985 Y115.706
G0 F3000 X104.491 Y115.776
G1 F1200 X116.283 Y127.568 E120.2453
G1 X116.353 Y127.638
G0 F3000 X115.718 Y127.568
G1 F1200 X103.927 Y115.776 E121.07518
G1 X103.857 Y115.706
G0 F3000 X103.362 Y115.776
G1 F1200 X115.154 Y127.568 E121.90509
G1 X115.224 Y127.638
G0 F3000 X114.59 Y127.568
G1 F1200 X102.798 Y115.776 E122.735
G1 X102.728 Y115.706
G0 F3000 X102.234 Y115.776
G1 F1200 X114.025 Y127.568 E123.56487
G1 X114.095 Y127.638
G0 F3000 X113.46 Y127.567
G1 F1200 X101.669 Y115.776 E124.39471
G1 X101.599 Y115.706
G0 F3000 X101.105 Y115.776
G1 F1200 X112.896 Y127.567 E125.22455
G1 X112.966 Y127.637
G0 F3000 X128.419 Y115.44
G1 F1200 X105.41 Y92.432 E126.84386
G1 X105.34 Y92.362
G0 F3000 X105.974 Y92.432
G1 F1200 X128.419 Y114.876 E128.42349
G1 X128.489 Y114.946
G0 F3000 X128.419 Y114.312
G1 F1200 X106.539 Y92.432 E129.96338
G1 X106.469 Y92.362
G0 F3000 X107.103 Y92.432
G1 F1200 X128.419 Y113.748 E131.46358
G1 X128.489 Y113.818
G0 F3000 X128.419 Y113.183
G1 F1200 X107.667 Y92.432 E132.92405
G1 X107.597 Y92.362
G0 F3000 X108.231 Y92.432
G1 F1200 X128.419 Y112.619 E134.34482
G1 X128.489 Y112.689
G0 F3000 X128.419 Y112.055
G1 F1200 X108.796 Y92.432 E135.72587
G1 X108.726 Y92.362
G0 F3000 X109.36 Y92.432
G1 F1200 X128.419 Y111.49 E137.06719
G1 X128.489 Y111.56
G0 F3000 X128.419 Y110.926
G1 F1200 X109.924 Y92.432 E138.36881
G1 X109.854 Y92.362
G0 F3000 X110.489 Y92.432
G1 F1200 X128.419 Y110.362 E139.63071
G1 X128.489 Y110.432
G0 F3000 X128.419 Y109.798
G1 F1200 X111.053 Y92.432 E140.85291
G1 X110.983 Y92.362
G0 F3000 X111.618 Y92.432
G1 F1200 X128.419 Y109.234 E142.03538
G1 X128.489 Y109.304
G0 F3000 X128.419 Y108.67
G1 F1200 X112.182 Y92.432 E143.17816
G1 X112.112 Y92.362
G0 F3000 X112.746 Y92.432
G1 F1200 X128.419 Y108.106 E144.28125
G1 X128.489 Y108.176
G0 F3000 X128.419 Y107.541
G1 F1200 X113.311 Y92.432 E145.34457
G1 X113.241 Y92.362
G0 F3000 X113.875 Y92.432
G1 F1200 X128.419 Y106.977 E146.3682
G1 X128.489 Y107.047
G0 F3000 X128.419 Y106.413
G1 F1200 X114.439 Y92.432 E147.35213
G1 X114.369 Y92.362
G0 F3000 X115.003 Y92.432
G1 F1200 X128.419 Y105.848 E148.29634
G1 X128.489 Y105.918
G0 F3000 X128.419 Y105.284
G1 F1200 X115.568 Y92.432 E149.20081
G1 X115.498 Y92.362
G0 F3000 X116.132 Y92.432
G1 F1200 X128.419 Y104.72 E150.06559
G1 X128.489 Y104.79
G0 F3000 X128.419 Y104.156
G1 F1200 X116.696 Y92.432 E150.89068
G1 X116.626 Y92.362
G0 F3000 X117.26 Y92.432
G1 F1200 X128.42 Y103.592 E151.67611
G1 X128.49 Y103.662
G0 F3000 X128.42 Y103.028
G1 F1200 X117.825 Y92.432 E152.42181
G1 X117.755 Y92.362
G0 F3000 X118.389 Y92.432
G1 F1200 X128.42 Y102.464 E153.12782
G1 X128.49 Y102.534
G0 F3000 X128.42 Y101.899
G1 F1200 X118.953 Y92.432 E153.7941
G1 X118.883 Y92.362
G0 F3000 X119.518 Y92.433
G1 F1200 X128.42 Y101.335 E154.42061
G1 X128.49 Y101.405
G0 F3000 X128.42 Y100.771
G1 F1200 X120.082 Y92.433 E155.00743
G1 X120.012 Y92.363
G0 F3000 X120.647 Y92.433
G1 F1200 X128.42 Y100.206 E155.55449
G1 X128.49 Y100.276
G0 F3000 X128.42 Y99.642
G1 F1200 X121.211 Y92.433 E156.06185
G1 X121.141 Y92.363
G0 F3000 X121.775 Y92.433
G1 F1200 X128.42 Y99.078 E156.52952
G1 X128.49 Y99.148
G0 F3000 X128.42 Y98.514
G1 F1200 X122.34 Y92.433 E156.95746
G1 X122.271 Y92.363
G0 F3000 X122.904 Y92.433
G1 F1200 X128.421 Y97.95 E157.34574
G1 X128.491 Y98.02
G0 F3000 X128.421 Y97.386
G1 F1200 X123.468 Y92.433 E157.69433
G1 X123.398 Y92.363
